X:1334
T:Timothy Downing
R:Reel
N:Collected by Beamish
B:O'Neill's 1334
Z:Transcribed by Trish O'Neil
M:C|
L:1/8
K:C
c2Bc ABG2|cdef agede|c2Bc ABG2|eabag efde|
3cdc 3BcB 3ABAG2|cdef agede|3cdc 3BcB 3ABAG2|eabag 3efed2||
aedeg2ag|edcd efge|aedeg2ag|eabag efde|
aedeg2ag|edcd efge|c2ccd2dd|eabag "D.C."efde|]
